cartflows/admin-core/assets/images/plugins/suretriggers/trusted-brands/Learndash_logo.svg

<svg width="126" height="22" viewBox="0 0 126 22" fill="none" xmlns="http://www.w3.org/2000/svg">
<g clip-path="url(#clip0_4393_128268)">
<path d="M15.6445 0.148438C14.378 0.148438 13.3599 1.15401 13.3599 2.40485V21.0202C13.3599 21.241 13.5585 21.4372 13.782 21.4372C16.0666 21.4372 17.929 19.5977 17.929 17.3413V2.40485C17.929 1.15401 16.9109 0.148438 15.6445 0.148438Z" fill="#4B5563"/>
<path d="M27.8371 0.148438H24.6089V21.5843H34.0452V18.8865H27.8371V0.148438Z" fill="#4B5563"/>
<path d="M40.1042 6.25781C38.4156 6.25781 37.1243 6.72381 36.3049 7.63128C35.4854 8.53875 35.0632 9.93674 35.0632 11.8007V16.0928C35.0632 18.2021 35.4357 19.6982 36.1807 20.5811C36.9257 21.4641 38.2418 21.9055 40.0794 21.9055C41.8177 21.9055 43.109 21.5376 43.9284 20.8018C44.7479 20.0661 45.1452 18.9379 45.0707 17.4418V16.8531H41.9915V17.4418C42.0163 18.153 41.8673 18.6926 41.5693 19.0114C41.2714 19.3303 40.7747 19.502 40.0794 19.502C39.2848 19.502 38.7633 19.3057 38.5398 18.8888C38.2915 18.4473 38.1425 17.5153 38.1425 16.0928V15.1608H45.1204V11.7762C45.1204 9.88769 44.7231 8.46517 43.9036 7.58223C43.109 6.69928 41.8177 6.25781 40.1042 6.25781ZM38.6391 9.34811C38.9371 8.85759 39.4089 8.63685 40.1042 8.63685C40.8492 8.63685 41.3459 8.85759 41.619 9.27453C41.917 9.71601 42.0412 10.5744 42.0412 11.8253V12.8308H38.1425V11.8253C38.1673 10.6725 38.3163 9.83864 38.6391 9.34811Z" fill="#4B5563"/>
<path d="M51.6763 6.25781C50.1367 6.25781 48.9199 6.67476 48.0756 7.48412C47.2313 8.29349 46.8091 9.44622 46.8588 10.8933V11.0404H49.9132V10.8933C49.9132 10.1575 50.0622 9.59338 50.385 9.20096C50.7078 8.80854 51.13 8.63685 51.7011 8.63685C52.2474 8.63685 52.6696 8.80854 52.9427 9.1519C53.2407 9.49527 53.3897 10.0103 53.3897 10.6725V12.2667H53.2407C50.7823 12.2667 49.044 12.6592 48.0507 13.444C47.0574 14.2288 46.5608 15.6268 46.5608 17.5889C46.5608 17.5889 46.5608 17.5889 46.5608 17.6134C46.5608 17.6134 46.5608 17.6134 46.5608 17.638C46.5608 19.0114 46.8836 20.0661 47.4796 20.8018C48.1004 21.5376 48.9944 21.9301 50.1863 21.9301C51.7259 21.9301 52.8186 21.4641 53.4642 20.5566V21.5867H56.5434V10.8933C56.5434 9.29906 56.1461 8.1218 55.3763 7.38602C54.5568 6.62571 53.3401 6.25781 51.6763 6.25781ZM53.4146 14.5967V15.7985C53.4642 17.0248 53.2656 17.9813 52.8931 18.5945C52.5206 19.2076 51.9494 19.502 51.1796 19.502C50.6333 19.502 50.236 19.3548 49.9877 19.0605C49.7393 18.7416 49.6152 18.2266 49.6152 17.4663C49.6152 16.5343 49.8883 15.7985 50.4595 15.308C51.0058 14.8175 51.8501 14.5722 52.9427 14.5722H53.4146V14.5967Z" fill="#4B5563"/>
<path d="M61.7086 7.87654L61.6093 7.99917V6.55213H58.53V21.5867H61.6093V13.3214C61.6093 11.8007 61.8576 10.7461 62.3294 10.1575C62.8012 9.59338 63.6704 9.29906 64.8871 9.29906H65.0361V6.25781H64.8871C63.6455 6.28234 62.5777 6.82191 61.7086 7.87654Z" fill="#4B5563"/>
<path d="M72.5106 6.25781C71.2938 6.25781 70.2261 6.69928 69.3073 7.5577V6.57665H66.228V21.5867H69.3073V11.6781C69.3073 10.6235 69.4811 9.83864 69.8287 9.34811C70.1764 8.85759 70.6979 8.63685 71.418 8.63685C72.014 8.63685 72.4361 8.80854 72.7341 9.20096C73.0321 9.59338 73.2059 10.1575 73.2059 10.8933V21.5867H76.2355V9.93674C76.2355 8.75949 75.9127 7.85202 75.267 7.21433C74.6214 6.57665 73.6778 6.25781 72.5106 6.25781Z" fill="#4B5563"/>
<path d="M83.9585 0.148438H78.5947V21.5843H85.5975C87.5344 21.5843 88.9498 21.0448 89.819 19.9656C90.6881 18.911 91.1103 17.1451 91.1103 14.7906V6.54978C91.1103 4.31789 90.5391 2.67464 89.4217 1.66906C88.2794 0.663488 86.4666 0.148438 83.9585 0.148438ZM87.8572 6.59883V14.8396C87.8572 16.3848 87.6089 17.4394 87.1371 18.028C86.6653 18.6167 85.8209 18.8865 84.629 18.8865H81.8229V2.84632H84.331C85.672 2.84632 86.5908 3.11611 87.1122 3.65568C87.6089 4.19526 87.8572 5.17631 87.8572 6.59883Z" fill="#4B5563"/>
<path d="M98.3613 6.25781C96.8217 6.25781 95.6049 6.67476 94.7606 7.48412C93.9163 8.29349 93.4942 9.44622 93.5438 10.8933V11.0404H96.5982V10.8933C96.5982 10.1575 96.7472 9.59338 97.07 9.20096C97.3929 8.80854 97.815 8.63685 98.3862 8.63685C98.9325 8.63685 99.3546 8.80854 99.6278 9.1519C99.9258 9.49527 100.075 10.0103 100.075 10.6725V12.2667H99.9258C97.4674 12.2667 95.7291 12.6592 94.7358 13.444C93.7425 14.2288 93.2458 15.6268 93.2458 17.5889C93.2458 17.5889 93.2458 17.5889 93.2458 17.6134C93.2458 17.6134 93.2458 17.6134 93.2458 17.638C93.2458 19.0114 93.5687 20.0661 94.1647 20.8018C94.7855 21.5376 95.6794 21.9301 96.8714 21.9301C98.411 21.9301 99.5036 21.4641 100.149 20.5566V21.5867H103.229V10.8933C103.229 9.29906 102.831 8.1218 102.061 7.38602C101.242 6.62571 100.025 6.25781 98.3613 6.25781ZM100.1 14.5967V15.7985C100.149 17.0248 99.9506 17.9813 99.5781 18.5945C99.2056 19.2076 98.6345 19.502 97.8647 19.502C97.3184 19.502 96.9211 19.3548 96.6727 19.0605C96.4244 18.7416 96.3002 18.2266 96.3002 17.4663C96.3002 16.5343 96.5734 15.7985 97.1446 15.308C97.6909 14.8175 98.5352 14.5722 99.6278 14.5722H100.1V14.5967Z" fill="#4B5563"/>
<path d="M110.306 12.507C109.362 11.8448 108.766 11.3543 108.493 11.06C108.245 10.7656 108.145 10.3977 108.145 9.93175C108.145 9.49028 108.269 9.14691 108.493 8.9507C108.716 8.72996 109.089 8.63186 109.561 8.63186C110.082 8.63186 110.455 8.77902 110.678 9.07333C110.902 9.36765 111.001 9.88269 110.976 10.5694V11.1581H114.006V10.2996C114.006 8.97523 113.683 7.96965 112.988 7.30744C112.267 6.62071 111.125 6.27734 109.536 6.27734C108.12 6.27734 107.028 6.62071 106.258 7.30744C105.488 7.99418 105.091 8.97523 105.091 10.2261C105.091 11.0845 105.339 11.8693 105.811 12.4825C106.283 13.0956 107.226 13.905 108.617 14.8615C109.66 15.5728 110.355 16.1614 110.678 16.5538C111.001 16.9462 111.175 17.3877 111.175 17.8782C111.175 18.4423 111.026 18.8593 110.753 19.1045C110.48 19.3743 110.033 19.5215 109.437 19.5215C108.816 19.5215 108.369 19.3498 108.071 19.0064C107.773 18.6631 107.649 18.099 107.698 17.3632V16.7746H104.669V17.6084C104.669 18.9819 105.041 20.0365 105.811 20.7478C106.606 21.5081 107.822 21.876 109.461 21.876C110.976 21.876 112.168 21.4836 112.988 20.7233C113.807 19.9384 114.229 18.8348 114.229 17.4122C114.229 16.5538 113.956 15.769 113.41 15.1068C112.913 14.4691 111.87 13.5862 110.306 12.507Z" fill="#4B5563"/>
<path d="M124.858 7.23651C124.212 6.59883 123.268 6.25546 122.076 6.25546C120.959 6.25546 119.891 6.72146 118.972 7.65345V0.148438H115.893V21.5843H118.972V11.6758C118.972 10.6211 119.146 9.83629 119.494 9.34576C119.841 8.85524 120.338 8.6345 121.083 8.6345C121.654 8.6345 122.101 8.80619 122.374 9.17408C122.672 9.54197 122.821 10.1061 122.821 10.8419V21.5843H125.851V9.98344C125.826 8.80619 125.503 7.87419 124.858 7.23651Z" fill="#4B5563"/>
<path d="M9.01408 5.56641C7.74762 5.56641 6.72949 6.57198 6.72949 7.82282V20.8708C6.72949 21.0915 6.92815 21.2877 7.15164 21.2877C9.43623 21.2877 11.2987 19.4482 11.2987 17.1918V7.82282C11.2987 6.57198 10.2805 5.56641 9.01408 5.56641Z" fill="#4B5563"/>
<path d="M2.38395 11.9453C1.1175 11.9453 0.0993652 12.9509 0.0993652 14.2017V21.1181C0.0993652 21.3388 0.298025 21.5351 0.521517 21.5351C2.80611 21.5351 4.66854 19.6956 4.66854 17.4392V14.2017C4.66854 12.9509 3.65041 11.9453 2.38395 11.9453Z" fill="#4B5563"/>
</g>
<defs>
<clipPath id="clip0_4393_128268">
<rect width="126" height="22" fill="white"/>
</clipPath>
</defs>
</svg>

<svg width="126" height="22" fill="none" xmlns="http://www.w3.org/2000/svg"><g clip-path="url(#a)" fill="#4B5563"><path d="M15.645.148a2.265 2.265 0 0 0-2.285 2.257V21.02c0 .221.199.417.422.417 2.285 0 4.147-1.84 4.147-4.096V2.405A2.265 2.265 0 0 0 15.645.148ZM27.837.148H24.61v21.436h9.436v-2.697h-6.208V.148ZM40.104 6.258c-1.688 0-2.98.466-3.8 1.373-.819.908-1.24 2.306-1.24 4.17v4.292c0 2.11.372 3.605 1.117 4.488.745.883 2.06 1.325 3.898 1.325 1.739 0 3.03-.368 3.85-1.104.819-.736 1.216-1.864 1.142-3.36v-.589h-3.08v.589c.025.711-.124 1.25-.422 1.57-.298.318-.794.49-1.49.49-.794 0-1.316-.196-1.54-.613-.248-.442-.397-1.374-.397-2.796v-.932h6.978v-3.385c0-1.888-.397-3.31-1.216-4.194-.795-.883-2.086-1.324-3.8-1.324Zm-1.465 3.09c.298-.49.77-.711 1.465-.711.745 0 1.242.22 1.515.638.298.441.422 1.3.422 2.55v1.006h-3.898v-1.006c.024-1.152.173-1.986.496-2.477ZM51.676 6.258c-1.54 0-2.756.417-3.6 1.226-.845.81-1.267 1.962-1.217 3.41v.146h3.054v-.147c0-.736.15-1.3.472-1.692.323-.392.745-.564 1.316-.564.546 0 .969.172 1.242.515.298.343.447.858.447 1.52v1.595h-.15c-2.458 0-4.196.392-5.19 1.177-.993.785-1.49 2.183-1.49 4.145v.049c0 1.373.324 2.428.92 3.164.62.736 1.514 1.128 2.706 1.128 1.54 0 2.633-.466 3.278-1.373v1.03h3.08V10.893c0-1.594-.398-2.771-1.168-3.507-.82-.76-2.036-1.128-3.7-1.128Zm1.739 8.339v1.202c.05 1.226-.15 2.182-.522 2.796-.372.613-.944.907-1.713.907-.547 0-.944-.147-1.192-.441-.249-.32-.373-.834-.373-1.595 0-.932.273-1.668.844-2.158.547-.49 1.391-.736 2.484-.736h.472v.025ZM61.709 7.877l-.1.122V6.552H58.53v15.035h3.08V13.32c0-1.52.248-2.575.72-3.163.471-.565 1.34-.859 2.557-.859h.15V6.258h-.15c-1.242.024-2.31.564-3.178 1.619ZM72.51 6.258c-1.216 0-2.284.441-3.203 1.3v-.981h-3.079v15.01h3.08v-9.909c0-1.055.173-1.84.52-2.33.348-.49.87-.711 1.59-.711.596 0 1.018.172 1.316.564.298.392.472.957.472 1.692v10.694h3.03V9.937c0-1.178-.323-2.085-.969-2.723-.646-.637-1.59-.956-2.756-.956ZM83.959.148h-5.364v21.436h7.002c1.937 0 3.353-.54 4.222-1.618.87-1.055 1.291-2.82 1.291-5.175V6.55c0-2.232-.57-3.875-1.688-4.88C88.279.662 86.467.147 83.959.147Zm3.898 6.45v8.242c0 1.545-.248 2.6-.72 3.188-.472.589-1.316.859-2.508.859h-2.806V2.847h2.508c1.341 0 2.26.27 2.781.809.497.54.745 1.52.745 2.943ZM98.361 6.258c-1.54 0-2.756.417-3.6 1.226-.845.81-1.267 1.962-1.217 3.41v.146h3.054v-.147c0-.736.15-1.3.472-1.692.323-.392.745-.564 1.316-.564.547 0 .969.172 1.242.515.298.343.447.858.447 1.52v1.595h-.15c-2.458 0-4.196.392-5.19 1.177-.992.785-1.49 2.183-1.49 4.145v.049c0 1.373.324 2.428.92 3.164.62.736 1.514 1.128 2.706 1.128 1.54 0 2.633-.466 3.278-1.373v1.03h3.08V10.893c0-1.594-.398-2.771-1.168-3.507-.819-.76-2.036-1.128-3.7-1.128Zm1.739 8.339v1.202c.049 1.226-.15 2.182-.522 2.796-.372.613-.944.907-1.713.907-.547 0-.944-.147-1.192-.441-.249-.32-.373-.834-.373-1.595 0-.932.273-1.668.845-2.158.546-.49 1.39-.736 2.483-.736h.472v.025ZM110.306 12.507c-.944-.662-1.54-1.153-1.813-1.447-.248-.294-.348-.662-.348-1.128 0-.442.124-.785.348-.981.223-.221.596-.32 1.068-.32.521 0 .894.148 1.117.442.224.295.323.81.298 1.496v.59h3.03v-.86c0-1.324-.323-2.33-1.018-2.992-.721-.686-1.863-1.03-3.452-1.03-1.416 0-2.508.344-3.278 1.03-.77.687-1.167 1.668-1.167 2.92 0 .857.248 1.642.72 2.255.472.614 1.415 1.423 2.806 2.38 1.043.71 1.738 1.3 2.061 1.692.323.392.497.834.497 1.324 0 .564-.149.981-.422 1.227-.273.27-.72.416-1.316.416-.621 0-1.068-.171-1.366-.515-.298-.343-.422-.907-.373-1.643v-.588h-3.029v.833c0 1.374.372 2.428 1.142 3.14.795.76 2.011 1.128 3.65 1.128 1.515 0 2.707-.392 3.527-1.153.819-.785 1.241-1.888 1.241-3.31 0-.86-.273-1.644-.819-2.306-.497-.638-1.54-1.52-3.104-2.6ZM124.858 7.237c-.646-.638-1.59-.982-2.782-.982-1.117 0-2.185.466-3.104 1.398V.148h-3.079v21.436h3.079v-9.908c0-1.055.174-1.84.522-2.33.347-.49.844-.712 1.589-.712.571 0 1.018.172 1.291.54.298.368.447.932.447 1.668v10.742h3.03v-11.6c-.025-1.178-.348-2.11-.993-2.747ZM9.014 5.566A2.265 2.265 0 0 0 6.73 7.823V20.87c0 .22.2.417.423.417 2.284 0 4.147-1.84 4.147-4.096v-9.37a2.265 2.265 0 0 0-2.285-2.256ZM2.384 11.945a2.265 2.265 0 0 0-2.285 2.257v6.916c0 .22.199.417.423.417 2.284 0 4.147-1.84 4.147-4.096v-3.237a2.265 2.265 0 0 0-2.285-2.257Z"/></g><defs><clipPath id="a"><path fill="#fff" d="M0 0h126v22H0z"/></clipPath></defs></svg>
